X:594
T:Bobby Casey's (jig)
R:Jig
O:Ireland
S:Music from Ireland Vol. 3
B:Music from Ireland Vol. 3
Z:Transcription, chords:Mike Long
M:6/8
L:1/8
K:G
"Am"c2A "G"BAG|"Am"EAA EAA|"C"cBc dcd|"G"eaf ged|\
"Am"c2A "G"BAG|"Am"EAA EAA|"C"cBc "G"dBG|"Am"BAA A2B:|
"C"cBc dcd|"Am"eaf "G"ged|"Am"efg aba|"Am"aba "G"ged|\
"C"cBc dcd|"Am"eaf "G"ged|"C"cBc "G"dBG|"Am"BAA A2B||
"C"cBc dcd|"Am"eaf "G"ged|"Am"efg aba|"Am"aba "G"ged|\
"C"eab c'ba|"G"gea ged|"C"cBc "G"dBG|"Am"BAA A2B|]
